packages/katcn/src/icons/svg/basket.svg

<svg xmlns="http://www.w3.org/2000/svg" fill="none" viewBox="0 0 24 24"><path fill="#000" d="M22.2 5.2c-.5-.6-1.2-1-2-1H8.4c-.6 0-1 .4-1 1s.4 1 1 1h11.7c.2 0 .4.1.4.2.1.2.2.4.1.6l-1.4 6.1c-.2 1-1.1 1.7-2.1 1.7h-6.4c-1 0-1.8-.6-2.1-1.6l-.8-2.5-2.1-6.9C5.2 2.1 3.7 1 2 1c-.6 0-1 .4-1 1s.4 1 1 1c.8 0 1.6.6 1.8 1.4l.7 2.3 2.2 7.1c.5 1.8 2.1 3 4 3h6.6c2 0 3.6-1.4 4.1-3.3l1.4-6.1c.1-.7-.1-1.5-.6-2.2M9.9 17.8c-1.4 0-2.6 1.2-2.6 2.6S8.5 23 9.9 23s2.6-1.2 2.6-2.6-1.2-2.6-2.6-2.6m0 3.2c-.3 0-.6-.3-.6-.6s.3-.6.6-.6.6.3.6.6-.3.6-.6.6m7.9-3.2c-1.4 0-2.6 1.2-2.6 2.6s1.2 2.6 2.6 2.6 2.6-1.2 2.6-2.6-1.2-2.6-2.6-2.6m0 3.2c-.3 0-.6-.3-.6-.6s.3-.6.6-.6.6.3.6.6-.3.6-.6.6"/></svg>

<svg width="24" height="24" viewBox="0 0 24 24" fill="none" xmlns="http://www.w3.org/2000/svg">
<path d="M22.2 5.2C21.7 4.6 21 4.2 20.2 4.2H8.4C7.8 4.2 7.4 4.6 7.4 5.2C7.4 5.8 7.8 6.2 8.4 6.2H20.1C20.3 6.2 20.5 6.3 20.5 6.4C20.6 6.6 20.7 6.8 20.6 7L19.2 13.1C19 14.1 18.1 14.8 17.1 14.8H10.7C9.7 14.8 8.9 14.2 8.6 13.2L7.8 10.7L5.7 3.8C5.2 2.1 3.7 1 2 1C1.4 1 1 1.4 1 2C1 2.6 1.4 3 2 3C2.8 3 3.6 3.6 3.8 4.4L4.5 6.7L6.7 13.8C7.2 15.6 8.8 16.8 10.7 16.8H17.3C19.3 16.8 20.9 15.4 21.4 13.5L22.8 7.4C22.9 6.7 22.7 5.9 22.2 5.2Z" fill="black"/>
<path d="M9.89999 17.8C8.49999 17.8 7.29999 19 7.29999 20.4C7.29999 21.8 8.49999 23 9.89999 23C11.3 23 12.5 21.8 12.5 20.4C12.5 19 11.3 17.8 9.89999 17.8ZM9.89999 21C9.59999 21 9.29999 20.7 9.29999 20.4C9.29999 20.1 9.59999 19.8 9.89999 19.8C10.2 19.8 10.5 20.1 10.5 20.4C10.5 20.7 10.2 21 9.89999 21Z" fill="black"/>
<path d="M17.8 17.8C16.4 17.8 15.2 19 15.2 20.4C15.2 21.8 16.4 23 17.8 23C19.2 23 20.4 21.8 20.4 20.4C20.4 19 19.2 17.8 17.8 17.8ZM17.8 21C17.5 21 17.2 20.7 17.2 20.4C17.2 20.1 17.5 19.8 17.8 19.8C18.1 19.8 18.4 20.1 18.4 20.4C18.4 20.7 18.1 21 17.8 21Z" fill="black"/>
</svg>
